assets/icons/qvision/remove_moderator.svg

<svg xmlns="http://www.w3.org/2000/svg" height="24" viewBox="0 0 24 24" width="24"><path d="M0 0h24v24H0z" fill="none"/><path d="M22.27 21.73l-3.54-3.55L5.78 5.23 2.27 1.72 1 2.99 3.01 5H3v6c0 5.55 3.84 10.74 9 12 2.16-.53 4.08-1.76 5.6-3.41L21 23l1.27-1.27zM13 9.92l6.67 6.67C20.51 14.87 21 12.96 21 11V5l-9-4-5.48 2.44L11 7.92l2 2z"/></svg>

<svg width="24" height="24" viewBox="0 0 24 24" fill="none" xmlns="http://www.w3.org/2000/svg">
<g clip-path="url(#clip0_147_6638)">
<path d="M22.27 21.73L18.73 18.18L5.78 5.23L2.27 1.72L1 2.99L3.01 5H3V11C3 16.55 6.84 21.74 12 23C14.16 22.47 16.08 21.24 17.6 19.59L21 23L22.27 21.73ZM13 9.92L19.67 16.59C20.51 14.87 21 12.96 21 11V5L12 1L6.52 3.44L11 7.92L13 9.92Z" fill="#323232"/>
</g>
<defs>
<clipPath id="clip0_147_6638">
<rect width="24" height="24" fill="white"/>
</clipPath>
</defs>
</svg>
